X:1
T:Entrance of Grand Duke
T:Entrance of Grand Duke
T:The Balkan Princess
T:Paul Rubens
C:Paul Rubens
%%score 1 [ 2 3 ] { ( 4 6 ) | 5 }
L:1/8
Q:1/4=100
M:2/4
K:F
V:1 treble-8 nm="Tenor"
V:2 treble nm="Kvinner"
V:3 bass nm="Menn"
V:4 treble nm="Piano"
V:6 treble 
V:5 bass 
V:1
"^Allegro" z4 | z4 | z4 | z4 | z4 | z4 | z4 | z4 | z4 | z4 | z4 | z4 | z4 | z4 | z4 | z4 | %16
w: ||||||||||||||||
"^Duke (spoken)" z2 z e | e2 e2 | e e e e | e2 e e | e2 z e | e2 e2 | e2 e e | e2 z2 | e3 e | %25
w: I'll|have an|ol- ive, yes, and|Soup? Croute au|pot; Some|fish? Sole|col- bert. Some|sauce?|No. A|
 e e e e | e e e2 | e2 e e | e3 e | e e/ e/ e e | e e e e | e2 e2 | e2 z2 |] %33
w: part- ridge? Yes. A|good i- dea.|Iced Cham- pagne-|cup. And|then, all you dar- ling|la- dies, You must|come and|sup!|
V:2
 z2 z!f! C | F2 G2 | F E D C | F2 G C | F3 F | B2 c2 | B A G F | B2 c F | d3 c | B3/2 c/4 B/4 A G | %10
w: La,|la, la,|la, la, la, la,|la, la, la,|la, la,|la, la,|la, la, la, la,|la, la, la,|la, la,|la, la, la, la, la,|
 c A F2 | G3/2 A/4 G/4 F E | A3 F | E2 G2 | A2 e2 |"^dim." d =B A G | c3 z | z4 | z4 | z4 | z4 | %21
w: la, la, la,|la, la, la, la, la,|la, la,|la, la,|la, la,|la, la, la, la,|la.|||||
 z4 | z4 | z4 | z4 | z4 | z4 | z4 | z4 | z4 | z4 | z4 | z4 |] %33
w: ||||||||||||
V:3
 z2 z!f! C, | F,2 G,2 | F, E, D, C, | F,2 G, C, | F,3 F, | B,2 C2 | B, A, G, F, | B,2 C F, | D3 C | %9
w: La,|la, la,|la, la, la, la,|la, la, la,|la, la,|la, la,|la, la, la, la,|la, la, la,|la, la,|
 B,3/2 C/4 B,/4 A, G, | C A, F,2 | G,3/2 A,/4 G,/4 F, E, | A,3 F, | E,2 G,2 | A,2 E2 | %15
w: la, la, la, la, la,|la, la, la,|la, la, la, la, la,|la, la,|la, la,|la, la,|
"^dim." D =B, A, G, | C3 z | z4 | z4 | z4 | z4 | z4 | z4 | z4 | z4 | z4 | z4 | z4 | z4 | z4 | z4 | %31
w: la, la, la, la,|la.|||||||||||||||
 z4 | z4 |] %33
w: ||
V:4
!f! [Cc]!<(![Cc]/[Cc]/ [Cc][Cc]!<)! | F2 G2 | FE DC | F2 G[B,C] | F3 F | B[DF] c[_EF] | BA GF | %7
 B[DF] c[_EF] | d3 [Ac] | [GB]3/2(c/4B/4 .A).[EG] | .[Ac].[FA] [CF]2 | G3/2(A/4G/4 F)E | A3 F | %13
 E2 G2 | A2"_dim." e2 | d=B A[FG] | [CEc]!>(!^C DE!>)! |!pp! F2 G2 |{FG} FE DC | F2 GC | F3 F | %21
 B2 c2 |{Bc} BA GF | B2 cF | [DFd]3 [Ac] | ([GB]3/2c/4B/4) .A.[EG] | .[Ac].[FA] [CF]2 | %27
 (G3/2A/4G/4) FE | [DA]3 A | (B3/2c/4B/4) .A.G | c[CFA] d[DGB] | [EAe] z [EGc] z | [FAf] z .F z |] %33
V:5
 !>![C,E,G,B,]3 C, | F,,[C,F,] C,,[C,E,] | F,,[C,F,] C,,[C,E,] | F,,[C,F,] C,,[C,E,] | %4
 F,,[C,F,] F,,[C,F,] | B,,[F,B,] F,,[F,B,] | B,,[F,B,] F,,[F,A,] | B,,[F,B,] F,,[F,A,] | %8
 B,,F, B,, z | G,,[D,B,] C,[B,C] | F,,[C,A,] A,,[F,A,] | E,[G,B,] A,,[G,A,] | D,[F,A,] D,[F,A,] | %13
 G,,[E,G,] G,,[E,G,] | G,,[E,G,] G,,[^F,A,] | G,,[G,=B,] G,,[G,B,] | [C,_B,]^C, D,E, | %17
 F,[A,C] C,[B,C] | F,[A,C] C,B, | F,[A,C] C,B, | F,[A,C] F,[A,_E] | B,,[B,D] F,[A,_E] | %22
 B,,[B,D] F,[A,_E] | B,,[B,D] F,[A,_E] | B,,F, B, z | G,[B,D] C,[B,C] | F,[A,C] A,,F, | %27
 E,B, A,,[G,A,] | D,[F,A,] D,[^F,=C] | G,,[G,B,] C,[B,C] | A,,[F,A,] G,,[G,B,] | %31
 [C,B,] z [C,B,] z | [F,A,] z .F, z |] %33
V:6
 x4 | F[A,C] G[B,C] | z A, z B, | F[A,C] x2 | z [A,C] z [A,C] | B2 c2 | z D z _E | B2 x2 | %8
 z [DF] [DF] x | x4 | x4 | z D z ^C | z D z D | z C z C | z [CE] z [EA] | =F3 x | x4 | x4 | x4 | %19
 x4 | x4 | x4 | x4 | x4 | x4 | x4 | x4 | D2 ^C2 | x4 | z D z E | x4 | x4 | x4 |] %33

